X: 3
T: The Galway
R: hornpipe
M: 4/4
L: 1/8
K: Gmaj
G2 Bd gdBG | FGAB cAFA | G2 Bd gfgb | agfe dcBA |G2 Bd gdBG | FGAB cAFA | Ggfe dcBA | B2 G2 G2 :|babc' bagf | edef e2 fg | agab agfe | d2 ce d2 df |gfga bgdB | cBcd egfe | Ggfe dcBA | B2 G2 G2 :|


Tune 38	Setting 12450

